X:075
T:Eleanor Plunkett
C:Turlough O'Carolan
S:Various recordings
M:3/4
L:1/4
K:G
G/A/|B B A/G/|G G a/g/|e e e/d/|B B A/G/|\
E A A/B/|A2:|g/a/|b a/g/e/d/|e2 e/f/|
g g b|a b/a/g/f/|g a/g/f/e/|d B d|\
e g G|B B A/G/|E A A/B/|A2:|
<end>
<start>
